X:1
T:Title
%%score { 1 | ( 2 3 ) }
L:1/8
M:6/8
K:Ab
V:1 treble nm="Grand Piano"
V:2 bass 
V:3 bass 
V:1
 z3 z2[Q:1/4=100] [CE] | [CE]>[DF][CE] [A,C][CE][CA] | [Ec][Ec]B A2 E | F>=EF [FA][_EG][DF] | %4
 [CE]3- [CE]2 [CE] | [CE]>[DF][CE] [A,C][CE][CA] |[M:5/8] [Ec][Ec]B A2 |[M:1/8] E | %8
[M:3/4] F>[EG] [FA]c cB |[M:5/8] [CA]-[CA]- [CA]3 |[M:1/8] c/d/ |[M:3/4] e>f ec BA | e>f ec BA | %13
 c>c c[=Dc] [DB][DA] | B4- Bc/d/ | e>f ec BA | [FB]>[FA] [DF][FB] [FA]F | %17
[M:13/16] ECEc[EAc]3/2[DGB] |[M:5/8] [CEA]-[CEA]- [CEA]3 |] %19
V:2
 z3 z2 [A,,A,] | [A,,A,]>[A,,A,][A,,A,] [A,,E,][A,,E,][A,,E,] | %2
 [A,,A,][C,A,][E,G,D] [A,C]2 [C,A,] | [D,A,D]>[D,A,D][D,A,D] [D,A,][D,A,][D,A,] | %4
 [A,,A,]3- [A,,A,]2 [A,,A,] | [A,,A,]>[A,,A,][A,,A,] [A,,E,][A,,E,][A,,E,] | %6
[M:5/8] [A,,A,][C,A,][E,G,D] [A,C]2 |[M:1/8] [C,A,] | %8
[M:3/4] [D,A,D]>[D,A,] [D,A,][E,A,E] [E,A,E][E,G,D] |[M:5/8] [A,,A,]-[A,,A,]- [A,,A,]3 | %10
[M:1/8][K:treble] [A,A] |[M:3/4] [A,CA]>[A,DA] [A,CA][A,EA] [A,DE][A,CE] | %12
 [A,CE]>[A,DA] [A,CA][A,EA][K:bass] [A,DE][A,CE] | [F,A,F]>[F,A,F] [F,A,F][B,,A,] [B,,B,][B,,B,] | %14
 z2 z2 z [A,E] | [A,CE]>[A,DA] [A,CA][A,EA] [A,DE][K:bass][A,CE] | %16
 [D,D]>[D,D] [D,A,][D,D] [D,D][D,A,D] |[M:13/16] [E,A,C][E,A,][E,A,C][E,A,E]E,3/2E, | %18
[M:5/8] A,,-A,,- A,,3 |] %19
V:3
 x6 | x6 | x6 | x6 | x6 | x6 |[M:5/8] x5 |[M:1/8] x |[M:3/4] x6 |[M:5/8] x5 | %10
[M:1/8][K:treble] z/ B,/ |[M:3/4] x6 | x4[K:bass] x2 | x6 | [E,G,E]4- [E,G,E] z/ B,/ | %15
 x5[K:bass] x | x6 |[M:13/16] x13/2 |[M:5/8] x5 |] %19

